ix/save-remove_bold.svg

<svg viewBox="0 0 24 24" fill="none" xmlns="http://www.w3.org/2000/svg" height="1em" width="1em">
  <path d="M21.9998 5.11V16.47C21.9998 17.92 20.9598 18.53 19.6898 17.83L17.7598 16.75C17.5998 16.66 17.4998 16.49 17.4998 16.31V8.99C17.4998 6.45 15.4298 4.38 12.8898 4.38H8.81984C8.44984 4.38 8.18984 3.99 8.35984 3.67C8.87984 2.68 9.91984 2 11.1098 2H18.8898C20.5998 2 21.9998 3.4 21.9998 5.11Z" fill="#292D32"/>
  <path d="M12.89 5.87891H5.11C3.4 5.87891 2 7.27891 2 8.98891V20.3489C2 21.7989 3.04 22.4089 4.31 21.7089L8.24 19.5189C8.66 19.2889 9.34 19.2889 9.76 19.5189L13.69 21.7089C14.96 22.4089 16 21.7989 16 20.3489V8.98891C16 7.27891 14.6 5.87891 12.89 5.87891ZM10.94 12.8789C11.23 13.1689 11.23 13.6489 10.94 13.9389C10.79 14.0889 10.6 14.1589 10.41 14.1589C10.22 14.1589 10.03 14.0889 9.88 13.9389L9 13.0589L8.12 13.9389C7.97 14.0889 7.78 14.1589 7.59 14.1589C7.4 14.1589 7.21 14.0889 7.06 13.9389C6.77 13.6489 6.77 13.1689 7.06 12.8789L7.94 11.9989L7.06 11.1189C6.77 10.8289 6.77 10.3489 7.06 10.0589C7.35 9.76891 7.83 9.76891 8.12 10.0589L9 10.9389L9.88 10.0589C10.17 9.76891 10.65 9.76891 10.94 10.0589C11.23 10.3489 11.23 10.8289 10.94 11.1189L10.06 11.9989L10.94 12.8789Z" fill="#292D32"/>
</svg>

<svg viewBox="0 0 24 24" fill="none" xmlns="http://www.w3.org/2000/svg" height="1em" width="1em">
  <path d="M22 5.11v11.36c0 1.45-1.04 2.06-2.31 1.36l-1.93-1.08a.509.509 0 0 1-.26-.44V8.99c0-2.54-2.07-4.61-4.61-4.61H8.82c-.37 0-.63-.39-.46-.71C8.88 2.68 9.92 2 11.11 2h7.78C20.6 2 22 3.4 22 5.11Z" fill="#292D32"/>
  <path d="M12.89 5.879H5.11A3.12 3.12 0 0 0 2 8.989v11.36c0 1.45 1.04 2.06 2.31 1.36l3.93-2.19c.42-.23 1.1-.23 1.52 0l3.93 2.19c1.27.7 2.31.09 2.31-1.36V8.989c0-1.71-1.4-3.11-3.11-3.11Zm-1.95 7c.29.29.29.77 0 1.06-.15.15-.34.22-.53.22s-.38-.07-.53-.22l-.88-.88-.88.88c-.15.15-.34.22-.53.22s-.38-.07-.53-.22a.754.754 0 0 1 0-1.06l.88-.88-.88-.88a.754.754 0 0 1 0-1.06c.29-.29.77-.29 1.06 0l.88.88.88-.88c.29-.29.77-.29 1.06 0 .29.29.29.77 0 1.06l-.88.88.88.88Z" fill="#292D32"/>
</svg>
